X: 37500
T: Sligo Maid, The
R: reel
M: 4/4
K: Adorian
|A2BA (3Bcd ef|gedB AGEF|~G2 BG dGBG|DEGA BedB|
A2BA (3Bcd ef|gedB AGEF|~B2BG ABGE|DEGA BAdB|
A2BA (3Bcd e~g-|gedB AGEF|~G2 BG dGBG|DG ~G2 DGBd|
A2BA (3Bcd e~g-|gedB AGEF|~B2BG ABGE|DEGA BAAg|
eaag ~a2ga|ag a~g2 e dg|dggf ~g2 ge|dg ~g2 dgbg|
eaag ~a2ga|bbag gedg|eg ~g2 edBc|dBgd BAA g|
eaag ~a2ga|bbaf gedg|dggf ~g2 ge|dg ~g2 dgbg|
eaag ~a2ga|b2a ~g2 e dg|eg ~g2 edBc|dBgd BAGB||

